X: 20
T:Scatter The Mud
M:6/8
L:1/8
C:Trad
S:Gerald Trimble's "First Flight"
R:Jig
K:G
|:eAA B2 A|eAA ABd|eAA B2 A|dBG GBd
|eAA B2 A|AAA AGE|GAB dge|1dBA A3:|2dBA A2 e
|:eaa egg|dBA ABd|eaa egg|dBG GBd|
eaf g2 e|dBA AGE|GAB dge|1dBA A2 e:|2dBA A3

